X:685
T:Reel 685
M:4/4
K:Dmaj
L:1/8
AG|F>D (3DDD FDAG|F>D (3DDD A2GF|G>E (3EEE G>E (3EEE |Geed cBAG|F>D (3DDD A,DDG|FDDF ABGd|BAGA B>A (3EEE |EG=cA G2|FA|Addc d2cd|AddA FEEF|GEe^d e2ed|Eee^d eBGE|Addc dcdc|Adde dcAF|GEFD EFGE|FAGE D2|
